assets/img/braze_icons/arrow-circle-up-right.svg

<svg fill="none" height="24" viewBox="0 0 24 24" width="24" xmlns="http://www.w3.org/2000/svg"><path clip-rule="evenodd" d="m4.22183 19.7782c4.29576 4.2957 11.26057 4.2957 15.55637 0 4.2957-4.2958 4.2957-11.26061 0-15.55638-4.2958-4.2957622-11.26061-4.2957617-15.55638.00001-4.2957622 4.29576-4.2957617 11.26057.00001 15.55637zm4.24264-4.2427c-.39053-.3905-.39053-1.0237 0-1.4142l3.94973-3.9497h-3.24263c-.55228 0-1-.44774-1-1.00003 0-.55228.44772-1 1-1h5.65683c.5523 0 1 .44772 1 1v5.65683c0 .5523-.4477 1-1 1s-1-.4477-1-1v-3.2426l-3.94972 3.9497c-.39052.3906-1.02369.3906-1.41421 0z" fill="#801ed7" fill-rule="evenodd"/></svg>

<svg width="24" height="24" viewBox="0 0 24 24" fill="none" xmlns="http://www.w3.org/2000/svg">
<path fill-rule="evenodd" clip-rule="evenodd" d="M4.22183 19.7782C8.51759 24.0739 15.4824 24.0739 19.7782 19.7782C24.0739 15.4824 24.0739 8.51759 19.7782 4.22182C15.4824 -0.0739422 8.51759 -0.0739417 4.22182 4.22183C-0.0739422 8.51759 -0.0739417 15.4824 4.22183 19.7782ZM8.46447 15.5355C8.07394 15.145 8.07394 14.5118 8.46447 14.1213L12.4142 10.1716H9.17157C8.61929 10.1716 8.17157 9.72386 8.17157 9.17157C8.17157 8.61929 8.61929 8.17157 9.17157 8.17157L14.8284 8.17157C15.3807 8.17157 15.8284 8.61929 15.8284 9.17157L15.8284 14.8284C15.8284 15.3807 15.3807 15.8284 14.8284 15.8284C14.2761 15.8284 13.8284 15.3807 13.8284 14.8284V11.5858L9.87868 15.5355C9.48816 15.9261 8.85499 15.9261 8.46447 15.5355Z" fill="#801ED7"/>
</svg>
